icons/lines/reserve.svg

<svg xmlns="http://www.w3.org/2000/svg" width="24" height="24" viewBox="0 0 24 24" fill="none" stroke="currentColor" stroke-width="2" stroke-linecap="round" stroke-linejoin="round" >
  <path d="M18.9697 22H4.96973C1.96973 22 1.96973 20.65 1.96973 19V18C1.96973 17.45 2.41973 17 2.96973 17H20.9697C21.5197 17 21.9697 17.45 21.9697 18V19C21.9697 20.65 21.9697 22 18.9697 22Z"/>
  <path d="M20.7195 13V17H3.26953V13C3.26953 9.16 5.97953 5.95 9.58953 5.18C10.1295 5.06 10.6895 5 11.2695 5H12.7195C13.2995 5 13.8695 5.06 14.4095 5.18C18.0195 5.96 20.7195 9.16 20.7195 13Z"/>
  <path d="M14.5 4.5C14.5 4.74 14.47 4.96 14.41 5.18C13.87 5.06 13.3 5 12.72 5H11.27C10.69 5 10.13 5.06 9.59 5.18C9.53 4.96 9.5 4.74 9.5 4.5C9.5 3.12 10.62 2 12 2C13.38 2 14.5 3.12 14.5 4.5Z"/>
  <path d="M15 11H9"/>
  </svg>

<svg xmlns="http://www.w3.org/2000/svg" width="24" height="24" viewBox="0 0 24 24" fill="none" stroke="currentColor" stroke-width="2" stroke-linecap="round" stroke-linejoin="round">
  <path d="M12.72 5a7.8 7.8 0 0 1 1.69.18 2.5 2.5 0 1 0-4.82 0A7.7 7.7 0 0 1 11.27 5za7.8 7.8 0 0 1 1.69.18A8 8 0 0 1 20.72 13v4" />
  <path d="M15 11H9" />
  <path d="M3.27 17v-4a8 8 0 0 1 6.32-7.82A7.7 7.7 0 0 1 11.27 5" />
  <path d="M4.97 22c-3 0-3-1.35-3-3v-1a1 1 0 0 1 1-1h18a1 1 0 0 1 1 1v1c0 1.65 0 3-3 3z" />
</svg>
